icons/circle/48/grub-customizer.svg

<svg xmlns="http://www.w3.org/2000/svg" viewBox="0 0 48 48">
 <defs>
  <linearGradient id="linearGradient3764" x1="1" x2="47" gradientUnits="userSpaceOnUse" gradientTransform="matrix(0,-1,1,0,-1.5e-6,47.999998)">
   <stop style="stop-color:#355473;stop-opacity:1"/>
   <stop offset="1" style="stop-color:#3b5d80;stop-opacity:1"/>
  </linearGradient>
 </defs>
 <g>
  <path d="m 36.31 5 c 5.859 4.062 9.688 10.831 9.688 18.5 c 0 12.426 -10.07 22.5 -22.5 22.5 c -7.669 0 -14.438 -3.828 -18.5 -9.688 c 1.037 1.822 2.306 3.499 3.781 4.969 c 4.085 3.712 9.514 5.969 15.469 5.969 c 12.703 0 23 -10.298 23 -23 c 0 -5.954 -2.256 -11.384 -5.969 -15.469 c -1.469 -1.475 -3.147 -2.744 -4.969 -3.781 z m 4.969 3.781 c 3.854 4.113 6.219 9.637 6.219 15.719 c 0 12.703 -10.297 23 -23 23 c -6.081 0 -11.606 -2.364 -15.719 -6.219 c 4.16 4.144 9.883 6.719 16.219 6.719 c 12.703 0 23 -10.298 23 -23 c 0 -6.335 -2.575 -12.06 -6.719 -16.219 z" style="opacity:0.05"/>
  <path d="m 41.28 8.781 c 3.712 4.085 5.969 9.514 5.969 15.469 c 0 12.703 -10.297 23 -23 23 c -5.954 0 -11.384 -2.256 -15.469 -5.969 c 4.113 3.854 9.637 6.219 15.719 6.219 c 12.703 0 23 -10.298 23 -23 c 0 -6.081 -2.364 -11.606 -6.219 -15.719 z" style="opacity:0.1"/>
  <path d="m 31.25 2.375 c 8.615 3.154 14.75 11.417 14.75 21.13 c 0 12.426 -10.07 22.5 -22.5 22.5 c -9.708 0 -17.971 -6.135 -21.12 -14.75 a 23 23 0 0 0 44.875 -7 a 23 23 0 0 0 -16 -21.875 z" style="opacity:0.2"/>
 </g>
 <g>
  <path d="m 24 1 c 12.703 0 23 10.297 23 23 c 0 12.703 -10.297 23 -23 23 -12.703 0 -23 -10.297 -23 -23 0 -12.703 10.297 -23 23 -23 z" style="fill:url(#linearGradient3764);fill-opacity:1"/>
 </g>
 <g>
  <g>
   <g transform="translate(1,1)">
    <g style="opacity:0.1">
     <!-- color: #3b5d80 -->
     <g>
      <path d="m 23 10 l 0 15 l 1.25 0 l 0 3.076 c -1.013 0.192 -1.75 0.753 -1.75 1.424 c 0 0.67 0.737 1.232 1.75 1.424 l 0 2.076 l 1.5 0 l 0 -2.076 c 1.013 -0.192 1.75 -0.753 1.75 -1.424 c 0 -0.67 -0.737 -1.232 -1.75 -1.424 l 0 -3.076 l 1.25 0 l 0 -15 l -4 0 z m -2 0.5 c -6.359 1.766 -11 7.617 -11 14.469 c 0 8.23 6.715 15.03 15 15.03 c 8.285 0 15 -6.8 15 -15.03 c 0 -6.852 -4.641 -12.703 -11 -14.469 l 0 3.875 c 4.184 1.645 7.25 5.75 7.25 10.594 c 0 6.313 -5.04 11.375 -11.25 11.375 c -6.203 0 -11.25 -5.063 -11.25 -11.375 c 0 -4.895 3.01 -9.05 7.25 -10.656 l 0 -3.813 z m -2.25 7.5 l 0 3.076 c -1.013 0.192 -1.75 0.753 -1.75 1.424 c 0 0.67 0.737 1.232 1.75 1.424 l 0 8.08 l 1.5 0 l 0 -8.08 c 1.013 -0.192 1.75 -0.753 1.75 -1.424 c 0 -0.67 -0.737 -1.232 -1.75 -1.424 l 0 -3.076 l -1.5 0 z m 11 0 l 0 3.076 c -1.013 0.192 -1.75 0.753 -1.75 1.424 c 0 0.67 0.737 1.232 1.75 1.424 l 0 8.08 l 1.5 0 l 0 -8.08 c 1.013 -0.192 1.75 -0.753 1.75 -1.424 c 0 -0.67 -0.737 -1.232 -1.75 -1.424 l 0 -3.076 l -1.5 0 z" transform="translate(-1,-1)"/>
     </g>
    </g>
   </g>
  </g>
 </g>
 <g>
  <g>
   <!-- color: #3b5d80 -->
   <g>
    <path d="m 26,9 -4,0 0,15 4,0 M 26,9" style="fill:#fa5a5a;fill-opacity:1;stroke:none;fill-rule:nonzero"/>
    <path d="m 20,9.5 c -6.359,1.766 -11,7.617 -11,14.469 0,8.23 6.715,15.03 15,15.03 8.285,0 15,-6.801 15,-15.03 C 39,17.117 34.359,11.266 28,9.5 l 0,3.875 c 4.184,1.645 7.25,5.75 7.25,10.594 0,6.313 -5.04,11.375 -11.25,11.375 -6.203,0 -11.25,-5.063 -11.25,-11.375 0,-4.895 3.01,-9.05 7.25,-10.656 M 20,9.5" style="fill:#fa5a5a;fill-opacity:1;stroke:none;fill-rule:nonzero"/>
    <path d="m 23.25 16 0 16 1.5 0 0 -16 m -1.5 0" style="fill:#f9f9f9;fill-opacity:1;stroke:none;fill-rule:nonzero"/>
    <path d="m 26.5 28.5 c 0 0.828 -1.117 1.5 -2.5 1.5 -1.383 0 -2.5 -0.672 -2.5 -1.5 0 -0.828 1.117 -1.5 2.5 -1.5 1.383 0 2.5 0.672 2.5 1.5 m 0 0" style="fill:#f9f9f9;fill-opacity:1;stroke:none;fill-rule:nonzero"/>
    <path d="m 19.25 31 0 -14 -1.5 0 0 14 m 1.5 0" style="fill:#f9f9f9;fill-opacity:1;stroke:none;fill-rule:nonzero"/>
    <path d="M 21,21.5 C 21,22.328 19.883,23 18.5,23 17.117,23 16,22.328 16,21.5 16,20.672 17.117,20 18.5,20 c 1.383,0 2.5,0.672 2.5,1.5 m 0,0" style="fill:#f9f9f9;fill-opacity:1;stroke:none;fill-rule:nonzero"/>
    <path d="m 30.25 31 0 -14 -1.5 0 0 14 m 1.5 0" style="fill:#f9f9f9;fill-opacity:1;stroke:none;fill-rule:nonzero"/>
    <path d="M 32,21.5 C 32,22.328 30.883,23 29.5,23 28.117,23 27,22.328 27,21.5 27,20.672 28.117,20 29.5,20 c 1.383,0 2.5,0.672 2.5,1.5 m 0,0" style="fill:#f9f9f9;fill-opacity:1;stroke:none;fill-rule:nonzero"/>
   </g>
  </g>
 </g>
 <g>
  <path d="m 40.03 7.531 c 3.712 4.084 5.969 9.514 5.969 15.469 0 12.703 -10.297 23 -23 23 c -5.954 0 -11.384 -2.256 -15.469 -5.969 4.178 4.291 10.01 6.969 16.469 6.969 c 12.703 0 23 -10.298 23 -23 0 -6.462 -2.677 -12.291 -6.969 -16.469 z" style="opacity:0.1"/>
 </g>
</svg>

<svg xmlns="http://www.w3.org/2000/svg" viewBox="0 0 48 48">
  <defs>
    <linearGradient id="a" x1="1" x2="47" gradientUnits="userSpaceOnUse" gradientTransform="rotate(-90 24 24)">
      <stop stop-color="#355473"/>
      <stop offset="1" stop-color="#3b5d80"/>
    </linearGradient>
  </defs>
  <path d="M36.31 5c5.859 4.062 9.688 10.831 9.688 18.5 0 12.426-10.07 22.5-22.5 22.5-7.669 0-14.438-3.828-18.5-9.688a23.24 23.24 0 0 0 3.781 4.969 22.923 22.923 0 0 0 15.469 5.969c12.703 0 23-10.298 23-23a22.92 22.92 0 0 0-5.969-15.469A23.216 23.216 0 0 0 36.31 5zm4.969 3.781A22.911 22.911 0 0 1 47.498 24.5c0 12.703-10.297 23-23 23a22.909 22.909 0 0 1-15.719-6.219C12.939 45.425 18.662 48 24.998 48c12.703 0 23-10.298 23-23 0-6.335-2.575-12.06-6.719-16.219z" opacity=".05"/>
  <path d="M41.28 8.781a22.923 22.923 0 0 1 5.969 15.469c0 12.703-10.297 23-23 23A22.92 22.92 0 0 1 8.78 41.281 22.911 22.911 0 0 0 24.499 47.5c12.703 0 23-10.298 23-23A22.909 22.909 0 0 0 41.28 8.781z" opacity=".1"/>
  <path d="M31.25 2.375C39.865 5.529 46 13.792 46 23.505c0 12.426-10.07 22.5-22.5 22.5-9.708 0-17.971-6.135-21.12-14.75a23 23 0 0 0 44.875-7 23 23 0 0 0-16-21.875z" opacity=".2"/>
  <path d="M24 1c12.703 0 23 10.297 23 23S36.703 47 24 47 1 36.703 1 24 11.297 1 24 1z" fill="url(#a)"/>
  <path d="M23 10v15h1.25v3.076c-1.013.192-1.75.753-1.75 1.424 0 .67.737 1.232 1.75 1.424V33h1.5v-2.076c1.013-.192 1.75-.753 1.75-1.424 0-.67-.737-1.232-1.75-1.424V25H27V10h-4zm-2 .5c-6.359 1.766-11 7.617-11 14.469 0 8.23 6.715 15.03 15 15.03s15-6.8 15-15.03c0-6.852-4.641-12.703-11-14.469v3.875c4.184 1.645 7.25 5.75 7.25 10.594 0 6.313-5.04 11.375-11.25 11.375-6.203 0-11.25-5.063-11.25-11.375 0-4.895 3.01-9.05 7.25-10.656V10.5zM18.75 18v3.076c-1.013.192-1.75.753-1.75 1.424 0 .67.737 1.232 1.75 1.424v8.08h1.5v-8.08c1.013-.192 1.75-.753 1.75-1.424 0-.67-.737-1.232-1.75-1.424V18h-1.5zm11 0v3.076c-1.013.192-1.75.753-1.75 1.424 0 .67.737 1.232 1.75 1.424v8.08h1.5v-8.08c1.013-.192 1.75-.753 1.75-1.424 0-.67-.737-1.232-1.75-1.424V18h-1.5z" opacity=".1"/>
  <g>
    <path d="M26 9h-4v15h4m0-15" fill="#fa5a5a"/>
    <path d="M20 9.5c-6.359 1.766-11 7.617-11 14.469 0 8.23 6.715 15.03 15 15.03s15-6.801 15-15.03c0-6.852-4.641-12.703-11-14.469v3.875c4.184 1.645 7.25 5.75 7.25 10.594 0 6.313-5.04 11.375-11.25 11.375-6.203 0-11.25-5.063-11.25-11.375 0-4.895 3.01-9.05 7.25-10.656M20 9.5" fill="#fa5a5a"/>
    <path d="M23.25 16v16h1.5V16m-1.5 0" fill="#f9f9f9"/>
    <path d="M26.5 28.5c0 .828-1.117 1.5-2.5 1.5s-2.5-.672-2.5-1.5S22.617 27 24 27s2.5.672 2.5 1.5m0 0M19.25 31V17h-1.5v14m1.5 0" fill="#f9f9f9"/>
    <path d="M21 21.5c0 .828-1.117 1.5-2.5 1.5s-2.5-.672-2.5-1.5 1.117-1.5 2.5-1.5 2.5.672 2.5 1.5m0 0M30.25 31V17h-1.5v14m1.5 0" fill="#f9f9f9"/>
    <path d="M32 21.5c0 .828-1.117 1.5-2.5 1.5s-2.5-.672-2.5-1.5 1.117-1.5 2.5-1.5 2.5.672 2.5 1.5m0 0" fill="#f9f9f9"/>
  </g>
  <g>
    <path d="M40.03 7.531A22.922 22.922 0 0 1 45.999 23c0 12.703-10.297 23-23 23A22.92 22.92 0 0 1 7.53 40.031C11.708 44.322 17.54 47 23.999 47c12.703 0 23-10.298 23-23 0-6.462-2.677-12.291-6.969-16.469z" opacity=".1"/>
  </g>
</svg>
